X: 43301
T: Woodland Flowers
R: barndance
M: 4/4
K: Gmajor
|:(3B,C^C|{G,}D>B A>G {G,}D>B A>G|(3E^DE A>c e2 L[^d^D]2|(3ege d>B ~c2 (3DEF|(3GBA (3GFE ~D2 (3B,C^C|
D>B A>G D>B A>G|(3E^DE A>c e4|(3ege d>B ~c2 (3DEF|G2 B2 G2:|
K:Dmaj
|:A2|(3fed A>d (3fed A>e|(3gfe B>e (3gfe B>e|c>A ^G>A B>=G c>A|(3dfe (3dcB ~A2 z2|
(3fed A>d (3fed A>e|(3gfe B2 (3gfe B2|c>A ^G>A B>=G c>A|d>A c>A d2:|
|:{B}A>G|F2 F >D G>F G>^G|A2 d2 d>c d>c|B2 B>d e>d c>B|A2 LE2 LA2 A>G|
A2 [F2d2] [F2d2] (3FED|E2 [E2c2] c>=c ^c>d|e>B B>d c>A c>e|c>d ~f>e d2:|

